build/Karasa-Jaga/scalable/status/printer-printing-symbolic.svg

<svg height="16" width="16" xmlns="http://www.w3.org/2000/svg"><g fill="#bebebe"><path d="m4.4672118.8613281v5.5429688h.7089844v-4.8652344h5.6445318v4.8652344h.677734v-5.5429688z" stroke-width="1.056329"/><path d="m2.6542969 5.3730469-.125.34375h-.46875c-.4294694.4522647-.6352799.8914838-.8125 1.34375-.1625648 2.0729246-.1625648 2.9584401 0 5.0312501h.21875 1.8125v-1.28125c0-.06541.012822-.129403.03125-.1875v-.09375c0-.264852.229098-.5.5-.5h5.0332031c.0891795-.1312426.2003598-.2444956.3027344-.3652345h-5.3359375c-.4825665 0-.8652344.3894535-.8652344.8652345v.082031c-.014331.06317-.03125.123745-.03125.199219v.916015h-1.3164063c-.1287214-1.7563806-.1331324-2.7021186.0117188-4.570312.1509434-.3809701.3404583-.7196692.6484375-1.0742188h.2714844a.36580844.36580844 0 0 0 .34375-.2402343l.0371093-.1035157h.3164063a.36580844.36580844 0 0 0 .3652344.34375h.0722656v.5410157a.36580844.36580844 0 0 0 .3652344.3652343h7.9062501a.36580844.36580844 0 0 0 .365234-.3652343v-.5410157h.041016a.36580844.36580844 0 0 0 .365234-.34375h.347657l.037109.1035157a.36580844.36580844 0 0 0 .34375.2402343h.267578c.325586.4054692.472827.7098341.652344 1.0839844.042743.5518599.046899.9408138.064453 1.3769532.136379.0667542.270273.1368378.398437.2167968-.018649-.5005088-.049183-1.031777-.101562-1.6992187-.208087-.425576-.337074-.7975356-.8125-1.34375h-.46875l-.125-.34375h-1.0625l.09375.34375h-.40625v.90625h-7.9062501v-.90625h-.4375l.0625-.34375zm-1.46875 6.7500001.1875.84375c.012532.07898.058638.08683.125.09375l1.9375-.03125-.03125-.875zm.4570312.371094 1.4082031.021484.0058594.154297-1.3691406.021484z"/><path d="m4.7851562 10.931641-.4550781 4.207031h4.6542969c-.0860139-.114071-.1673187-.229374-.2421875-.351563h-3.8027344l.3808594-3.478515h2.9472656c.0360977-.126965.0702289-.25483.1171875-.376953z"/><path d="m4.1679688 6.9960938v2.1308593h5.5195312c.602782-.5040688 1.332292-.8507608 2.140625-.9765625v-1.1542968z" opacity=".5"/></g><path d="m12.5 9c-1.933 0-3.5 1.567-3.5 3.5s1.567 3.5 3.5 3.5 3.5-1.567 3.5-3.5-1.567-3.5-3.5-3.5zm-.884766 1.572266a.32642855.32642855 0 0 1 .1875.042968l1.367188.789063 1.367187.789062a.32642855.32642855 0 0 1 0 .564453l-1.367187.791016-1.367188.789063a.32642855.32642855 0 0 1 -.488281-.283203v-1.580079-1.576171a.32642855.32642855 0 0 1 .300781-.326172z" fill="#25da25"/></svg>

<?xml version="1.0" encoding="UTF-8" standalone="no"?>
<!-- Created with Inkscape (http://www.inkscape.org/) -->

<svg
   xmlns:dc="http://purl.org/dc/elements/1.1/"
   xmlns:cc="http://creativecommons.org/ns#"
   xmlns:rdf="http://www.w3.org/1999/02/22-rdf-syntax-ns#"
   xmlns:svg="http://www.w3.org/2000/svg"
   xmlns="http://www.w3.org/2000/svg"
   xmlns:sodipodi="http://sodipodi.sourceforge.net/DTD/sodipodi-0.dtd"
   xmlns:inkscape="http://www.inkscape.org/namespaces/inkscape"
   id="svg7854"
   height="16"
   width="16"
   version="1.0"
   inkscape:version="0.92.2 (unknown)"
   sodipodi:docname="printer-printing-symbolic.svg"
   inkscape:export-filename="/usr/share/icons/Karasa Jaga/scalable/status/media-playlist-repeat.png"
   inkscape:export-xdpi="90"
   inkscape:export-ydpi="90">
  <metadata
     id="metadata5314">
    <rdf:RDF>
      <cc:Work
         rdf:about="">
        <dc:format>image/svg+xml</dc:format>
        <dc:type
           rdf:resource="http://purl.org/dc/dcmitype/StillImage" />
        <dc:title></dc:title>
      </cc:Work>
    </rdf:RDF>
  </metadata>
  <sodipodi:namedview
     pagecolor="#ffffff"
     bordercolor="#666666"
     borderopacity="1"
     objecttolerance="10"
     gridtolerance="10"
     guidetolerance="10"
     inkscape:pageopacity="0"
     inkscape:pageshadow="2"
     inkscape:window-width="1366"
     inkscape:window-height="706"
     id="namedview5312"
     showgrid="false"
     inkscape:zoom="27.812868"
     inkscape:cx="8.6666088"
     inkscape:cy="2.530002"
     inkscape:window-x="0"
     inkscape:window-y="0"
     inkscape:window-maximized="1"
     inkscape:current-layer="svg7854" />
  <defs
     id="defs7856">
    <linearGradient
       id="linearGradient5841">
      <stop
         style="stop-color:#37e700;stop-opacity:1;"
         offset="0"
         id="stop5843" />
      <stop
         id="stop5849"
         offset="0.5"
         style="stop-color:#3dfe00;stop-opacity:1;" />
      <stop
         style="stop-color:#2aad00;stop-opacity:1;"
         offset="1"
         id="stop5845" />
    </linearGradient>
    <linearGradient
       id="linearGradient4117"
       y2="34.612"
       gradientUnits="userSpaceOnUse"
       x2="22.402"
       y1="15.722"
       x1="22.146999">
      <stop
         id="stop4113"
         style="stop-color:#fff"
         offset="0" />
      <stop
         id="stop4115"
         style="stop-color:#fff;stop-opacity:0"
         offset="1" />
    </linearGradient>
    <linearGradient
       id="linearGradient3696"
       y2="21"
       gradientUnits="userSpaceOnUse"
       x2="15"
       y1="2"
       x1="15">
      <stop
         id="stop3700"
         style="stop-color:#eeeeec"
         offset="0" />
      <stop
         id="stop3702"
         style="stop-color:#babdb6"
         offset=".79220" />
      <stop
         id="stop3704"
         style="stop-color:#a1a59b"
         offset="1" />
    </linearGradient>
    <filter
       id="filter7554"
       color-interpolation-filters="sRGB">
      <feBlend
         mode="darken"
         in2="BackgroundImage"
         id="feBlend7556" />
    </filter>
    <filter
       id="filter7554-7"
       color-interpolation-filters="sRGB">
      <feBlend
         mode="darken"
         in2="BackgroundImage"
         id="feBlend7556-6" />
    </filter>
  </defs>
  <g
     id="g3498">
    <path
       id="rect363"
       d="M 4.4672118,0.8613281 V 6.4042969 H 5.1761962 V 1.5390625 h 5.6445318 v 4.8652344 h 0.677734 V 0.8613281 Z"
       style="fill:#bebebe;fill-opacity:1;stroke-width:1.05632913"
       inkscape:connector-curvature="0" />
    <path
       id="polygon76"
       d="M 2.6542969 5.3730469 L 2.5292969 5.7167969 L 2.0605469 5.7167969 C 1.6310775 6.1690616 1.425267 6.6082807 1.2480469 7.0605469 C 1.0854821 9.1334715 1.0854821 10.018987 1.2480469 12.091797 L 1.4667969 12.091797 L 3.2792969 12.091797 L 3.2792969 10.810547 C 3.2792969 10.745137 3.2921189 10.681144 3.3105469 10.623047 L 3.3105469 10.529297 C 3.3105469 10.264445 3.5396449 10.029297 3.8105469 10.029297 L 8.84375 10.029297 C 8.9329295 9.8980544 9.0441098 9.7848014 9.1464844 9.6640625 L 3.8105469 9.6640625 C 3.3279804 9.6640625 2.9453125 10.053516 2.9453125 10.529297 L 2.9453125 10.611328 C 2.9309815 10.674498 2.9140625 10.735073 2.9140625 10.810547 L 2.9140625 11.726562 L 1.5976562 11.726562 C 1.4689348 9.9701814 1.4645238 9.0244434 1.609375 7.15625 C 1.7603184 6.7752799 1.9498333 6.4365808 2.2578125 6.0820312 L 2.5292969 6.0820312 A 0.36580844 0.36580844 0 0 0 2.8730469 5.8417969 L 2.9101562 5.7382812 L 3.2265625 5.7382812 A 0.36580844 0.36580844 0 0 0 3.5917969 6.0820312 L 3.6640625 6.0820312 L 3.6640625 6.6230469 A 0.36580844 0.36580844 0 0 0 4.0292969 6.9882812 L 11.935547 6.9882812 A 0.36580844 0.36580844 0 0 0 12.300781 6.6230469 L 12.300781 6.0820312 L 12.341797 6.0820312 A 0.36580844 0.36580844 0 0 0 12.707031 5.7382812 L 13.054688 5.7382812 L 13.091797 5.8417969 A 0.36580844 0.36580844 0 0 0 13.435547 6.0820312 L 13.703125 6.0820312 C 14.028711 6.4875004 14.175952 6.7918653 14.355469 7.1660156 C 14.398212 7.7178755 14.402368 8.1068294 14.419922 8.5429688 C 14.556301 8.609723 14.690195 8.6798066 14.818359 8.7597656 C 14.79971 8.2592568 14.769176 7.7279886 14.716797 7.0605469 C 14.50871 6.6349709 14.379723 6.2630113 13.904297 5.7167969 L 13.435547 5.7167969 L 13.310547 5.3730469 L 12.248047 5.3730469 L 12.341797 5.7167969 L 11.935547 5.7167969 L 11.935547 6.6230469 L 4.0292969 6.6230469 L 4.0292969 5.7167969 L 3.5917969 5.7167969 L 3.6542969 5.3730469 L 2.6542969 5.3730469 z M 1.1855469 12.123047 L 1.3730469 12.966797 C 1.3855789 13.045777 1.4316849 13.053627 1.4980469 13.060547 L 3.4355469 13.029297 L 3.4042969 12.154297 L 1.1855469 12.123047 z M 1.6425781 12.494141 L 3.0507812 12.515625 L 3.0566406 12.669922 L 1.6875 12.691406 L 1.6425781 12.494141 z "
       style="fill:#bebebe;fill-opacity:1" />
    <path
       id="rect4186"
       d="M 4.7851562 10.931641 L 4.3300781 15.138672 L 8.984375 15.138672 C 8.8983611 15.024601 8.8170563 14.909298 8.7421875 14.787109 L 4.9394531 14.787109 L 5.3203125 11.308594 L 8.2675781 11.308594 C 8.3036758 11.181629 8.337807 11.053764 8.3847656 10.931641 L 4.7851562 10.931641 z "
       style="fill:#bebebe;fill-opacity:1" />
    <path
       id="path3850-3"
       d="M 4.1679688 6.9960938 L 4.1679688 9.1269531 L 9.6875 9.1269531 C 10.290282 8.6228843 11.019792 8.2761923 11.828125 8.1503906 L 11.828125 6.9960938 L 4.1679688 6.9960938 z "
       style="opacity:0.5;fill:#bebebe;fill-opacity:1;stroke:none;stroke-width:0.63900262" />
    <path
       id="path3482-5"
       d="M 12.5 9 C 10.567 9 9 10.567 9 12.5 C 9 14.433 10.567 16 12.5 16 C 14.433 16 16 14.433 16 12.5 C 16 10.567 14.433 9 12.5 9 z M 11.615234 10.572266 A 0.32642855 0.32642855 0 0 1 11.802734 10.615234 L 13.169922 11.404297 L 14.537109 12.193359 A 0.32642855 0.32642855 0 0 1 14.537109 12.757812 L 13.169922 13.548828 L 11.802734 14.337891 A 0.32642855 0.32642855 0 0 1 11.314453 14.054688 L 11.314453 12.474609 L 11.314453 10.898438 A 0.32642855 0.32642855 0 0 1 11.615234 10.572266 z "
       style="color:#bebebe;fill:#25da25;fill-opacity:1" />
  </g>
</svg>
